images/6603710.svg

<?xml version="1.0" encoding="UTF-8"?>
<svg xmlns="http://www.w3.org/2000/svg" xmlns:xlink="http://www.w3.org/1999/xlink" width="300pt" height="300pt" viewBox="0 0 300 300" version="1.1">
<defs>
<g>
<symbol overflow="visible" id="glyph0-0">
<path style="stroke:none;" d="M 0.59375 2.125 L 0.59375 -8.46875 L 6.59375 -8.46875 L 6.59375 2.125 Z M 1.265625 1.453125 L 5.9375 1.453125 L 5.9375 -7.78125 L 1.265625 -7.78125 Z M 1.265625 1.453125 "/>
</symbol>
<symbol overflow="visible" id="glyph0-1">
<path style="stroke:none;" d="M 6.421875 -8.46875 L 6.421875 -7.3125 C 5.972656 -7.519531 5.546875 -7.675781 5.140625 -7.78125 C 4.742188 -7.894531 4.363281 -7.953125 4 -7.953125 C 3.351562 -7.953125 2.851562 -7.828125 2.5 -7.578125 C 2.15625 -7.328125 1.984375 -6.96875 1.984375 -6.5 C 1.984375 -6.113281 2.097656 -5.820312 2.328125 -5.625 C 2.554688 -5.425781 3 -5.269531 3.65625 -5.15625 L 4.359375 -5 C 5.242188 -4.832031 5.894531 -4.535156 6.3125 -4.109375 C 6.738281 -3.691406 6.953125 -3.128906 6.953125 -2.421875 C 6.953125 -1.566406 6.664062 -0.921875 6.09375 -0.484375 C 5.53125 -0.046875 4.695312 0.171875 3.59375 0.171875 C 3.1875 0.171875 2.75 0.125 2.28125 0.03125 C 1.8125 -0.0625 1.328125 -0.203125 0.828125 -0.390625 L 0.828125 -1.609375 C 1.304688 -1.335938 1.773438 -1.132812 2.234375 -1 C 2.703125 -0.863281 3.15625 -0.796875 3.59375 -0.796875 C 4.269531 -0.796875 4.789062 -0.925781 5.15625 -1.1875 C 5.53125 -1.457031 5.71875 -1.835938 5.71875 -2.328125 C 5.71875 -2.753906 5.582031 -3.085938 5.3125 -3.328125 C 5.050781 -3.578125 4.617188 -3.757812 4.015625 -3.875 L 3.296875 -4.015625 C 2.410156 -4.191406 1.769531 -4.46875 1.375 -4.84375 C 0.988281 -5.21875 0.796875 -5.738281 0.796875 -6.40625 C 0.796875 -7.1875 1.066406 -7.796875 1.609375 -8.234375 C 2.148438 -8.679688 2.898438 -8.90625 3.859375 -8.90625 C 4.273438 -8.90625 4.691406 -8.867188 5.109375 -8.796875 C 5.535156 -8.722656 5.972656 -8.613281 6.421875 -8.46875 Z M 6.421875 -8.46875 "/>
</symbol>
<symbol overflow="visible" id="glyph0-2">
<path style="stroke:none;" d="M 4.734375 -7.953125 C 3.867188 -7.953125 3.179688 -7.628906 2.671875 -6.984375 C 2.171875 -6.347656 1.921875 -5.472656 1.921875 -4.359375 C 1.921875 -3.265625 2.171875 -2.394531 2.671875 -1.75 C 3.179688 -1.113281 3.867188 -0.796875 4.734375 -0.796875 C 5.585938 -0.796875 6.265625 -1.113281 6.765625 -1.75 C 7.273438 -2.394531 7.53125 -3.265625 7.53125 -4.359375 C 7.53125 -5.472656 7.273438 -6.347656 6.765625 -6.984375 C 6.265625 -7.628906 5.585938 -7.953125 4.734375 -7.953125 Z M 4.734375 -8.90625 C 5.953125 -8.90625 6.925781 -8.492188 7.65625 -7.671875 C 8.394531 -6.847656 8.765625 -5.742188 8.765625 -4.359375 C 8.765625 -2.984375 8.394531 -1.882812 7.65625 -1.0625 C 6.925781 -0.238281 5.953125 0.171875 4.734375 0.171875 C 3.503906 0.171875 2.519531 -0.238281 1.78125 -1.0625 C 1.039062 -1.882812 0.671875 -2.984375 0.671875 -4.359375 C 0.671875 -5.742188 1.039062 -6.847656 1.78125 -7.671875 C 2.519531 -8.492188 3.503906 -8.90625 4.734375 -8.90625 Z M 4.734375 -8.90625 "/>
</symbol>
<symbol overflow="visible" id="glyph0-3">
<path style="stroke:none;" d="M 1.171875 -8.75 L 2.765625 -8.75 L 6.65625 -1.4375 L 6.65625 -8.75 L 7.796875 -8.75 L 7.796875 0 L 6.203125 0 L 2.328125 -7.3125 L 2.328125 0 L 1.171875 0 Z M 1.171875 -8.75 "/>
</symbol>
<symbol overflow="visible" id="glyph0-4">
<path style="stroke:none;" d="M 1.171875 -8.75 L 2.359375 -8.75 L 2.359375 -5.15625 L 6.65625 -5.15625 L 6.65625 -8.75 L 7.84375 -8.75 L 7.84375 0 L 6.65625 0 L 6.65625 -4.171875 L 2.359375 -4.171875 L 2.359375 0 L 1.171875 0 Z M 1.171875 -8.75 "/>
</symbol>
</g>
</defs>
<g id="surface38289">
<rect x="0" y="0" width="300" height="300" style="fill:rgb(100%,100%,100%);fill-opacity:1;stroke:none;"/>
<path style="fill:none;stroke-width:1.2;stroke-linecap:butt;stroke-linejoin:miter;stroke:rgb(0%,0%,0%);stroke-opacity:1;stroke-miterlimit:10;" d="M 35.25 117.785156 L 42.445312 146.710938 "/>
<path style="fill:none;stroke-width:1.2;stroke-linecap:butt;stroke-linejoin:miter;stroke:rgb(0%,0%,0%);stroke-opacity:1;stroke-miterlimit:10;" d="M 42.445312 146.710938 L 56.769531 150.824219 "/>
<path style="fill:none;stroke-width:1.2;stroke-linecap:butt;stroke-linejoin:miter;stroke:rgb(80%,80%,0%);stroke-opacity:1;stroke-miterlimit:10;" d="M 56.769531 150.824219 L 71.09375 154.941406 "/>
<path style="fill:none;stroke-width:1.2;stroke-linecap:butt;stroke-linejoin:miter;stroke:rgb(80%,80%,0%);stroke-opacity:1;stroke-miterlimit:10;" d="M 74.464844 155.910156 L 78.578125 141.585938 "/>
<path style="fill:none;stroke-width:1.2;stroke-linecap:butt;stroke-linejoin:miter;stroke:rgb(100%,0%,0%);stroke-opacity:1;stroke-miterlimit:10;" d="M 78.578125 141.585938 L 82.695312 127.261719 "/>
<path style="fill:none;stroke-width:1.2;stroke-linecap:butt;stroke-linejoin:miter;stroke:rgb(80%,80%,0%);stroke-opacity:1;stroke-miterlimit:10;" d="M 67.722656 153.972656 L 71.839844 139.648438 "/>
<path style="fill:none;stroke-width:1.2;stroke-linecap:butt;stroke-linejoin:miter;stroke:rgb(100%,0%,0%);stroke-opacity:1;stroke-miterlimit:10;" d="M 71.839844 139.648438 L 75.953125 125.324219 "/>
<path style="fill:none;stroke-width:1.2;stroke-linecap:butt;stroke-linejoin:miter;stroke:rgb(80%,80%,0%);stroke-opacity:1;stroke-miterlimit:10;" d="M 67.722656 153.972656 L 63.609375 168.296875 "/>
<path style="fill:none;stroke-width:1.2;stroke-linecap:butt;stroke-linejoin:miter;stroke:rgb(100%,0%,0%);stroke-opacity:1;stroke-miterlimit:10;" d="M 63.609375 168.296875 L 59.492188 182.621094 "/>
<path style="fill:none;stroke-width:1.2;stroke-linecap:butt;stroke-linejoin:miter;stroke:rgb(80%,80%,0%);stroke-opacity:1;stroke-miterlimit:10;" d="M 74.464844 155.910156 L 70.347656 170.234375 "/>
<path style="fill:none;stroke-width:1.2;stroke-linecap:butt;stroke-linejoin:miter;stroke:rgb(100%,0%,0%);stroke-opacity:1;stroke-miterlimit:10;" d="M 70.347656 170.234375 L 66.234375 184.558594 "/>
<path style="fill:none;stroke-width:1.2;stroke-linecap:butt;stroke-linejoin:miter;stroke:rgb(80%,80%,0%);stroke-opacity:1;stroke-miterlimit:10;" d="M 71.09375 154.941406 L 85.417969 159.054688 "/>
<path style="fill:none;stroke-width:1.2;stroke-linecap:butt;stroke-linejoin:miter;stroke:rgb(0%,0%,100%);stroke-opacity:1;stroke-miterlimit:10;" d="M 85.417969 159.054688 L 99.742188 163.171875 "/>
<path style=" stroke:none;fill-rule:nonzero;fill:rgb(100%,100%,100%);fill-opacity:1;" d="M 67.09375 147.941406 L 75.09375 147.941406 L 75.09375 161.941406 L 67.09375 161.941406 Z M 67.09375 147.941406 "/>
<g style="fill:rgb(80%,80%,0%);fill-opacity:1;">
  <use xlink:href="#glyph0-1" x="67.09375" y="159.080078"/>
</g>
<path style=" stroke:none;fill-rule:nonzero;fill:rgb(100%,100%,100%);fill-opacity:1;" d="M 74.324219 119.292969 L 84.324219 119.292969 L 84.324219 133.292969 L 74.324219 133.292969 Z M 74.324219 119.292969 "/>
<g style="fill:rgb(100%,0%,0%);fill-opacity:1;">
  <use xlink:href="#glyph0-2" x="74.324219" y="130.431641"/>
</g>
<path style=" stroke:none;fill-rule:nonzero;fill:rgb(100%,100%,100%);fill-opacity:1;" d="M 57.863281 176.589844 L 67.863281 176.589844 L 67.863281 190.589844 L 57.863281 190.589844 Z M 57.863281 176.589844 "/>
<g style="fill:rgb(100%,0%,0%);fill-opacity:1;">
  <use xlink:href="#glyph0-2" x="57.863281" y="187.728516"/>
</g>
<path style="fill:none;stroke-width:1.2;stroke-linecap:butt;stroke-linejoin:miter;stroke:rgb(0%,0%,100%);stroke-opacity:1;stroke-miterlimit:10;" d="M 99.742188 163.171875 L 110.46875 152.824219 "/>
<path style="fill:none;stroke-width:1.2;stroke-linecap:butt;stroke-linejoin:miter;stroke:rgb(0%,0%,0%);stroke-opacity:1;stroke-miterlimit:10;" d="M 110.46875 152.824219 L 121.191406 142.476562 "/>
<path style=" stroke:none;fill-rule:nonzero;fill:rgb(100%,100%,100%);fill-opacity:1;" d="M 90.742188 156.171875 L 108.742188 156.171875 L 108.742188 170.171875 L 90.742188 170.171875 Z M 90.742188 156.171875 "/>
<g style="fill:rgb(0%,0%,100%);fill-opacity:1;">
  <use xlink:href="#glyph0-3" x="90.742188" y="167.310547"/>
  <use xlink:href="#glyph0-4" x="99.71875" y="167.310547"/>
</g>
<path style="fill:none;stroke-width:1.2;stroke-linecap:butt;stroke-linejoin:miter;stroke:rgb(0%,0%,0%);stroke-opacity:1;stroke-miterlimit:10;" d="M 121.191406 142.476562 L 113.996094 113.550781 "/>
<path style="fill:none;stroke-width:1.2;stroke-linecap:butt;stroke-linejoin:miter;stroke:rgb(0%,0%,0%);stroke-opacity:1;stroke-miterlimit:10;" d="M 127.277344 137.890625 L 121.523438 114.753906 "/>
<path style="fill:none;stroke-width:1.2;stroke-linecap:butt;stroke-linejoin:miter;stroke:rgb(0%,0%,0%);stroke-opacity:1;stroke-miterlimit:10;" d="M 149.839844 150.707031 L 121.191406 142.476562 "/>
<path style="fill:none;stroke-width:1.2;stroke-linecap:butt;stroke-linejoin:miter;stroke:rgb(0%,0%,0%);stroke-opacity:1;stroke-miterlimit:10;" d="M 113.996094 113.550781 L 135.449219 92.859375 "/>
<path style="fill:none;stroke-width:1.2;stroke-linecap:butt;stroke-linejoin:miter;stroke:rgb(0%,0%,0%);stroke-opacity:1;stroke-miterlimit:10;" d="M 135.449219 92.859375 L 164.097656 101.089844 "/>
<path style="fill:none;stroke-width:1.2;stroke-linecap:butt;stroke-linejoin:miter;stroke:rgb(0%,0%,0%);stroke-opacity:1;stroke-miterlimit:10;" d="M 136.378906 100.421875 L 159.296875 107.007812 "/>
<path style="fill:none;stroke-width:1.2;stroke-linecap:butt;stroke-linejoin:miter;stroke:rgb(0%,0%,0%);stroke-opacity:1;stroke-miterlimit:10;" d="M 164.097656 101.089844 L 171.292969 130.015625 "/>
<path style="fill:none;stroke-width:1.2;stroke-linecap:butt;stroke-linejoin:miter;stroke:rgb(0%,0%,0%);stroke-opacity:1;stroke-miterlimit:10;" d="M 171.292969 130.015625 L 149.839844 150.707031 "/>
<path style="fill:none;stroke-width:1.2;stroke-linecap:butt;stroke-linejoin:miter;stroke:rgb(0%,0%,0%);stroke-opacity:1;stroke-miterlimit:10;" d="M 164.277344 127.035156 L 147.117188 143.589844 "/>
<path style="fill:none;stroke-width:1.2;stroke-linecap:butt;stroke-linejoin:miter;stroke:rgb(0%,0%,0%);stroke-opacity:1;stroke-miterlimit:10;" d="M 171.292969 130.015625 L 199.941406 138.246094 "/>
<path style="fill:none;stroke-width:1.2;stroke-linecap:butt;stroke-linejoin:miter;stroke:rgb(0%,0%,0%);stroke-opacity:1;stroke-miterlimit:10;" d="M 199.941406 138.246094 L 207.136719 167.171875 "/>
<path style="fill:none;stroke-width:1.2;stroke-linecap:butt;stroke-linejoin:miter;stroke:rgb(0%,0%,0%);stroke-opacity:1;stroke-miterlimit:10;" d="M 193.855469 142.832031 L 199.609375 165.96875 "/>
<path style="fill:none;stroke-width:1.2;stroke-linecap:butt;stroke-linejoin:miter;stroke:rgb(0%,0%,0%);stroke-opacity:1;stroke-miterlimit:10;" d="M 199.941406 138.246094 L 221.390625 117.550781 "/>
<path style="fill:none;stroke-width:1.2;stroke-linecap:butt;stroke-linejoin:miter;stroke:rgb(0%,0%,0%);stroke-opacity:1;stroke-miterlimit:10;" d="M 207.136719 167.171875 L 185.683594 187.863281 "/>
<path style="fill:none;stroke-width:1.2;stroke-linecap:butt;stroke-linejoin:miter;stroke:rgb(0%,0%,0%);stroke-opacity:1;stroke-miterlimit:10;" d="M 235.78125 175.402344 L 207.136719 167.171875 "/>
<path style="fill:none;stroke-width:1.2;stroke-linecap:butt;stroke-linejoin:miter;stroke:rgb(0%,0%,0%);stroke-opacity:1;stroke-miterlimit:10;" d="M 185.683594 187.863281 L 192.878906 216.789062 "/>
<path style="fill:none;stroke-width:1.2;stroke-linecap:butt;stroke-linejoin:miter;stroke:rgb(0%,0%,0%);stroke-opacity:1;stroke-miterlimit:10;" d="M 192.878906 216.789062 L 221.527344 225.019531 "/>
<path style="fill:none;stroke-width:1.2;stroke-linecap:butt;stroke-linejoin:miter;stroke:rgb(0%,0%,0%);stroke-opacity:1;stroke-miterlimit:10;" d="M 221.527344 225.019531 L 242.980469 204.324219 "/>
<path style="fill:none;stroke-width:1.2;stroke-linecap:butt;stroke-linejoin:miter;stroke:rgb(0%,0%,0%);stroke-opacity:1;stroke-miterlimit:10;" d="M 242.980469 204.324219 L 235.78125 175.402344 "/>
<path style="fill:none;stroke-width:1.2;stroke-linecap:butt;stroke-linejoin:miter;stroke:rgb(0%,0%,0%);stroke-opacity:1;stroke-miterlimit:10;" d="M 221.390625 117.550781 L 217.257812 88.03125 "/>
<path style="fill:none;stroke-width:1.2;stroke-linecap:butt;stroke-linejoin:miter;stroke:rgb(0%,0%,0%);stroke-opacity:1;stroke-miterlimit:10;" d="M 227.925781 113.625 L 224.617188 90.011719 "/>
<path style="fill:none;stroke-width:1.2;stroke-linecap:butt;stroke-linejoin:miter;stroke:rgb(0%,0%,100%);stroke-opacity:1;stroke-miterlimit:10;" d="M 250.742188 122.742188 L 236.066406 120.148438 "/>
<path style="fill:none;stroke-width:1.2;stroke-linecap:butt;stroke-linejoin:miter;stroke:rgb(0%,0%,0%);stroke-opacity:1;stroke-miterlimit:10;" d="M 236.066406 120.148438 L 221.390625 117.550781 "/>
<path style="fill:none;stroke-width:1.2;stroke-linecap:butt;stroke-linejoin:miter;stroke:rgb(0%,0%,0%);stroke-opacity:1;stroke-miterlimit:10;" d="M 217.257812 88.03125 L 230.65625 81.507812 "/>
<path style="fill:none;stroke-width:1.2;stroke-linecap:butt;stroke-linejoin:miter;stroke:rgb(0%,0%,100%);stroke-opacity:1;stroke-miterlimit:10;" d="M 230.65625 81.507812 L 244.054688 74.980469 "/>
<path style="fill:none;stroke-width:1.2;stroke-linecap:butt;stroke-linejoin:miter;stroke:rgb(0%,0%,100%);stroke-opacity:1;stroke-miterlimit:10;" d="M 244.054688 74.980469 L 254.402344 85.707031 "/>
<path style="fill:none;stroke-width:1.2;stroke-linecap:butt;stroke-linejoin:miter;stroke:rgb(0%,0%,0%);stroke-opacity:1;stroke-miterlimit:10;" d="M 254.402344 85.707031 L 264.75 96.433594 "/>
<path style="fill:none;stroke-width:1.2;stroke-linecap:butt;stroke-linejoin:miter;stroke:rgb(0%,0%,100%);stroke-opacity:1;stroke-miterlimit:10;" d="M 241.078125 81.996094 L 249.355469 90.574219 "/>
<path style="fill:none;stroke-width:1.2;stroke-linecap:butt;stroke-linejoin:miter;stroke:rgb(0%,0%,0%);stroke-opacity:1;stroke-miterlimit:10;" d="M 249.355469 90.574219 L 257.632812 99.15625 "/>
<path style=" stroke:none;fill-rule:nonzero;fill:rgb(100%,100%,100%);fill-opacity:1;" d="M 240.054688 67.980469 L 249.054688 67.980469 L 249.054688 81.980469 L 240.054688 81.980469 Z M 240.054688 67.980469 "/>
<g style="fill:rgb(0%,0%,100%);fill-opacity:1;">
  <use xlink:href="#glyph0-3" x="240.054688" y="79.119141"/>
</g>
<path style="fill:none;stroke-width:1.2;stroke-linecap:butt;stroke-linejoin:miter;stroke:rgb(0%,0%,0%);stroke-opacity:1;stroke-miterlimit:10;" d="M 264.75 96.433594 L 257.746094 109.585938 "/>
<path style="fill:none;stroke-width:1.2;stroke-linecap:butt;stroke-linejoin:miter;stroke:rgb(0%,0%,100%);stroke-opacity:1;stroke-miterlimit:10;" d="M 257.746094 109.585938 L 250.742188 122.742188 "/>
<path style=" stroke:none;fill-rule:nonzero;fill:rgb(100%,100%,100%);fill-opacity:1;" d="M 241.742188 115.742188 L 259.742188 115.742188 L 259.742188 129.742188 L 241.742188 129.742188 Z M 241.742188 115.742188 "/>
<g style="fill:rgb(0%,0%,100%);fill-opacity:1;">
  <use xlink:href="#glyph0-3" x="241.742188" y="126.880859"/>
  <use xlink:href="#glyph0-4" x="250.71875" y="126.880859"/>
</g>
</g>
</svg>

<svg xmlns="http://www.w3.org/2000/svg" xmlns:xlink="http://www.w3.org/1999/xlink" width="300pt" height="300pt" viewBox="0 0 300 300"><defs><symbol overflow="visible"><path d="M.594 2.125V-8.47h6V2.126zm.672-.672h4.671V-7.78h-4.67zm0 0"/></symbol><symbol overflow="visible" id="a"><path d="M6.422-8.47v1.158c-.45-.208-.875-.364-1.28-.47-.4-.113-.78-.17-1.142-.17-.648 0-1.148.124-1.5.374-.344.25-.516.61-.516 1.078 0 .387.114.68.344.875.227.2.672.355 1.328.47L4.36-5c.882.168 1.535.465 1.952.89.426.42.64.98.64 1.688 0 .856-.288 1.5-.858 1.938-.563.437-1.4.656-2.5.656-.406 0-.844-.047-1.313-.14C1.814-.064 1.33-.204.83-.392v-1.22c.477.274.945.477 1.406.61.47.137.922.203 1.36.203.676 0 1.195-.13 1.562-.39.375-.27.563-.65.563-1.14 0-.427-.138-.76-.407-1-.262-.25-.696-.43-1.297-.548l-.72-.14c-.886-.176-1.526-.454-1.92-.83-.388-.374-.58-.893-.58-1.56 0-.782.27-1.392.813-1.83.538-.445 1.288-.67 2.25-.67.413 0 .83.038 1.25.108.425.074.863.184 1.312.328zm0 0"/></symbol><symbol overflow="visible" id="b"><path d="M4.734-7.953c-.867 0-1.554.324-2.062.97-.5.635-.75 1.51-.75 2.624 0 1.094.25 1.965.75 2.61.508.637 1.195.953 2.062.953.852 0 1.532-.316 2.032-.953.507-.645.765-1.516.765-2.61 0-1.113-.257-1.988-.764-2.624-.5-.645-1.18-.97-2.032-.97zm0-.953c1.22 0 2.192.414 2.922 1.234.74.824 1.11 1.93 1.11 3.313 0 1.376-.37 2.477-1.11 3.298C6.926-.24 5.953.17 4.734.17c-1.23 0-2.214-.41-2.953-1.234C1.04-1.882.673-2.984.673-4.36c0-1.382.367-2.488 1.11-3.312.738-.82 1.722-1.234 2.952-1.234zm0 0"/></symbol><symbol overflow="visible" id="c"><path d="M1.172-8.75h1.594l3.89 7.313V-8.75h1.14V0H6.204L2.328-7.313V0H1.172zm0 0"/></symbol><symbol overflow="visible" id="d"><path d="M1.172-8.75H2.36v3.594h4.296V-8.75h1.188V0H6.656v-4.172H2.36V0H1.17zm0 0"/></symbol></defs><g><path fill="#fff" d="M0 0h300v300H0z"/><path d="M35.25 117.785l7.195 28.926M42.445 146.71l14.325 4.114" stroke-width="1.2" stroke="#000" stroke-miterlimit="10" fill="none"/><path d="M56.77 150.824l14.324 4.117M74.465 155.91l4.113-14.324" stroke-width="1.2" stroke="#cc0" stroke-miterlimit="10" fill="none"/><path d="M78.578 141.586l4.117-14.324" stroke-width="1.2" stroke="#f00" stroke-miterlimit="10" fill="none"/><path d="M67.723 153.973l4.117-14.325" stroke-width="1.2" stroke="#cc0" stroke-miterlimit="10" fill="none"/><path d="M71.84 139.648l4.113-14.324" stroke-width="1.2" stroke="#f00" stroke-miterlimit="10" fill="none"/><path d="M67.723 153.973l-4.114 14.324" stroke-width="1.2" stroke="#cc0" stroke-miterlimit="10" fill="none"/><path d="M63.61 168.297L59.49 182.62" stroke-width="1.2" stroke="#f00" stroke-miterlimit="10" fill="none"/><path d="M74.465 155.91l-4.117 14.324" stroke-width="1.2" stroke="#cc0" stroke-miterlimit="10" fill="none"/><path d="M70.348 170.234l-4.114 14.325" stroke-width="1.2" stroke="#f00" stroke-miterlimit="10" fill="none"/><path d="M71.094 154.94l14.324 4.115" stroke-width="1.2" stroke="#cc0" stroke-miterlimit="10" fill="none"/><path d="M85.418 159.055l14.324 4.117" stroke-width="1.2" stroke="#00f" stroke-miterlimit="10" fill="none"/><path d="M67.094 147.94h8v14h-8zm0 0" fill="#fff"/><use xlink:href="#a" x="67.094" y="159.08" fill="#cc0"/><path d="M74.324 119.293h10v14h-10zm0 0" fill="#fff"/><use xlink:href="#b" x="74.324" y="130.432" fill="#f00"/><path d="M57.863 176.59h10v14h-10zm0 0" fill="#fff"/><use xlink:href="#b" x="57.863" y="187.729" fill="#f00"/><path d="M99.742 163.172l10.727-10.348" stroke-width="1.2" stroke="#00f" stroke-miterlimit="10" fill="none"/><path d="M110.47 152.824l10.72-10.347" stroke-width="1.2" stroke="#000" stroke-miterlimit="10" fill="none"/><path d="M90.742 156.172h18v14h-18zm0 0" fill="#fff"/><g fill="#00f"><use xlink:href="#c" x="90.742" y="167.311"/><use xlink:href="#d" x="99.719" y="167.311"/></g><path d="M121.19 142.477l-7.194-28.926M127.277 137.89l-5.754-23.136M149.84 150.707l-28.65-8.23M113.996 113.55l21.453-20.69M135.45 92.86l28.648 8.23M136.38 100.422l22.917 6.586M164.098 101.09l7.195 28.926M171.293 130.016l-21.453 20.69M164.277 127.035l-17.16 16.555M171.293 130.016l28.648 8.23M199.94 138.246l7.197 28.926M193.855 142.832l5.754 23.137M199.94 138.246l21.45-20.695M207.137 167.172l-21.453 20.69M235.78 175.402l-28.643-8.23M185.684 187.863l7.195 28.926M192.88 216.79l28.647 8.23M221.527 225.02l21.453-20.696M242.98 204.324l-7.2-28.922M221.39 117.55l-4.132-29.52M227.926 113.625l-3.31-23.613" stroke-width="1.2" stroke="#000" stroke-miterlimit="10" fill="none"/><path d="M250.742 122.742l-14.676-2.594" stroke-width="1.2" stroke="#00f" stroke-miterlimit="10" fill="none"/><path d="M236.066 120.148l-14.675-2.597M217.258 88.03l13.398-6.522" stroke-width="1.2" stroke="#000" stroke-miterlimit="10" fill="none"/><path d="M230.656 81.508l13.4-6.528M244.055 74.98l10.347 10.727" stroke-width="1.2" stroke="#00f" stroke-miterlimit="10" fill="none"/><path d="M254.402 85.707l10.348 10.727" stroke-width="1.2" stroke="#000" stroke-miterlimit="10" fill="none"/><path d="M241.078 81.996l8.277 8.578" stroke-width="1.2" stroke="#00f" stroke-miterlimit="10" fill="none"/><path d="M249.355 90.574l8.278 8.582" stroke-width="1.2" stroke="#000" stroke-miterlimit="10" fill="none"/><path d="M240.055 67.98h9v14h-9zm0 0" fill="#fff"/><use xlink:href="#c" x="240.055" y="79.119" fill="#00f"/><path d="M264.75 96.434l-7.004 13.152" stroke-width="1.2" stroke="#000" stroke-miterlimit="10" fill="none"/><path d="M257.746 109.586l-7.004 13.156" stroke-width="1.2" stroke="#00f" stroke-miterlimit="10" fill="none"/><path d="M241.742 115.742h18v14h-18zm0 0" fill="#fff"/><g fill="#00f"><use xlink:href="#c" x="241.742" y="126.881"/><use xlink:href="#d" x="250.719" y="126.881"/></g></g></svg>
